X: 1
T: Mrs Maurice Cramb
C: Jimmy Shand
R: jig
B: Jimmy Shand, Scottish Dance Album Book 2 (1953) Pub. James S.Kerr, Glasgow
Z: John Chambers <jc:trillian.mit.edu>
M: 6/8
L: 1/8
K: G
D \
|| "G"D>EG G>AB | G>BG A2B | G>AB A>BG | B<dG e2d \
|  "G"d>eg B>AG | A>BG E2D | D>EC D>dB | "D7"A3 "G"G2 B/c/ ||
| "G"d>ed d>Bc | d>cB "D7"A>Bc | "G"d>ge d>BD | "C"E3 "D7"D2B/c/ \
| "G"d>ed d>Bc | d>cB "D7"A>Bc | "G"d>ge d>cB | "D7"A3 "G"G2 B/c/ ||
| "G"d>ed d>Bc | d>cB "D7"A>Bc | "G"d>ge d>BD | "C"E3 "D7"D2D \
| "C"E>CE G>FE | "G"D>BA G>FE | D>EC D>dB | "D7"A3 "G"G2 |]

%%sep 1 1 500

